assets/icons/qvision/person_pin_circle.svg

<svg xmlns="http://www.w3.org/2000/svg" enable-background="new 0 0 24 24" height="24" viewBox="0 0 24 24" width="24"><g><rect fill="none" height="24" width="24"/></g><g><g><g><path d="M12 2C8.14 2 5 5.14 5 9c0 5.25 7 13 7 13s7-7.75 7-13c0-3.86-3.14-7-7-7zm0 2c1.1 0 2 .9 2 2 0 1.11-.9 2-2 2s-2-.89-2-2c0-1.1.9-2 2-2zm0 10c-1.67 0-3.14-.85-4-2.15.02-1.32 2.67-2.05 4-2.05s3.98.73 4 2.05c-.86 1.3-2.33 2.15-4 2.15z"/></g></g></g></svg>

<svg width="24" height="24" viewBox="0 0 24 24" fill="none" xmlns="http://www.w3.org/2000/svg">
<g clip-path="url(#clip0_147_5568)">
<path d="M12 2C8.14 2 5 5.14 5 9C5 14.25 12 22 12 22C12 22 19 14.25 19 9C19 5.14 15.86 2 12 2ZM12 4C13.1 4 14 4.9 14 6C14 7.11 13.1 8 12 8C10.9 8 10 7.11 10 6C10 4.9 10.9 4 12 4ZM12 14C10.33 14 8.86 13.15 8 11.85C8.02 10.53 10.67 9.8 12 9.8C13.33 9.8 15.98 10.53 16 11.85C15.14 13.15 13.67 14 12 14Z" fill="#323232"/>
</g>
<defs>
<clipPath id="clip0_147_5568">
<rect width="24" height="24" fill="white"/>
</clipPath>
</defs>
</svg>
